!!!Melodie: Wunderbarer König
!!!Typ: Lied
**kern	**silbe	**silbe	**silbe	**silbe	**silbe	**silbe	**silbe	**silbe	**silbe	**silbe	**silbe	**silbe	**silbe	**silbe	**silbe	**silbe
*clefG2	*lang:DE	*lang:DE	*lang:DE	*lang:DE	*lang:DE	*lang:DE	*lang:DE	*lang:DE	*lang:DE	*lang:DE	*lang:DE	*lang:DE	*lang:DE	*lang:DE	*lang:DE	*lang:DE
*k[b-]	*	*	*	*	*	*	*	*	*	*	*	*	*	*	*	*
*M2/2	*	*	*	*	*	*	*	*	*	*	*	*	*	*	*	*
4a	Gott	Gott	Gott	Hei#	Wir	Da	Ma#	Möcht’	Luft,	Meer	Du	Wie	Ma#	Mach	Herr,	Komm,
4a	ist	ist	ist	#lig,	ent#	liegt	#jes#	ich,	die	ohn’	durch#	die	#che	mich	komm	du
4a	ge#	in	ge#	hei#	#sa#	un#	#tä#	wie	al#	Grund	#dring#	zar#	mich	rei#	in	na#
4a	#gen#	der	#gen#	#lig,	#gen	#ser	#tisch'	die	#les	und	#est	#ten	ein#	#nes	mir	#hes
=	=	=	=	=	=	=	=	=	=	=	=	=	=	=	=	=
2g	#wär#	Mit#	#wär#	hei#	wil#	Wil#	We#	Eng#	fül#	En#	al#	Blu#	#fäl#	Her#	woh#	We#
2g	#tig.	#te.	#tig,	#lig!	#lig	#le,	#sen,	#el,	#let,	#de!	#les;	#men	#tig,	#zens,	#nen,	#sen!
=	=	=	=	=	=	=	=	=	=	=	=	=	=	=	=	=
4f	Las#	Al#	dem	sin#	al#	See#	möcht’	im#	d’rin	Wun#	lass	wil#	in#	dass	lass	Dich
4f	#set	#les	die	#gen	#len	#le,	ich	#mer	wir	#der	dein	#lig	#nig,	ich	mein’	in
4f	uns	in	Che#	ihm	Ei#	Leib,	recht	vor	im#	al#	schön#	sich	ab#	dei#	Geist	mir
4f	an#	uns	#ru#	zur	#tel#	und	dich	dir	#mer	#ler	#stes	ent#	#ge#	#ne	auf	ver#
=	=	=	=	=	=	=	=	=	=	=	=	=	=	=	=	=
2e	#be#	schwei#	#bi#	Eh#	#kei#	Le#	prei#	ste#	schwe#	Wun#	Lich#	#fal#	#schie#	Klar#	Er#	#klä#
2e	#ten	#ge	#nen	#re	#ten,	#ben	#sen	#hen,	#ben,	#der:	#te,	#ten	#den,	#heit	#den	#re,
=	=	=	=	=	=	=	=	=	=	=	=	=	=	=	=	=
*M3/2	*	*	*	*	*	*	*	*	*	*	*	*	*	*	*	*
4d	und	und	Tag	al#	al#	dir	und	und	al#	Ich	Herr,	und	sanft	schau#	dir	dass
4d	in	sich	und	#ler	#ler	zum	im	dich	#ler	senk	be#	der	und	#en	ein	ich
4c	Ehr#	in#	Nacht	En#	Er#	Ei#	Geist	ge#	Din#	mich	#rüh#	Son#	still	mag	Hei#	dich
4f	#furcht	#nigst	ge#	#gel	#den#	#gen#	dir	#gen#	#gen	in	#ren	#ne	in	im	#lig#	stets
4g	vor	vor	#bük#	ho#	#lust	#tum	Dienst	#wär#	Grund	dich	mein	stil#	dei#	Geist	#tum	lieb’
4a	ihn	ihm	#ket	#he	und	er#	er#	#tig	und	hi#	Ge#	#le	#nem	und	noch	und
=	=	=	=	=	=	=	=	=	=	=	=	=	=	=	=	=
*M2/2	*	*	*	*	*	*	*	*	*	*	*	*	*	*	*	*
2g	tre#	‘beu#	die#	Chö#	Freu#	#ge#	#wei#	se#	Le#	#nun#	#sich#	hal#	Frie#	Wahr#	wer#	eh#
2f	#ten.	#ge.	#nen.	#re.	#den;	#ben.	#sen.	#hen.	#ben.	#ter.	#te.	#ten,	#den;	#heit;	#den;	#re.
=:|	=	=	=	=	=	=	=	=	=	=	=	=	=	=	=	=
2a	.	Wer	.	Herr,	.	Du	.	Lass	.	Ich	.	lass	.	Lass	.	Wo
2a	.	ihn	.	ver#	.	al#	.	mich	.	in	.	mich	.	mein	.	ich
=	=	=	=	=	=	=	=	=	=	=	=	=	=	=	=	=
1b-	.	kennt,	.	#nimm	.	#lein	.	dir	.	dir,	.	so	.	Herz	.	geh’,
=	=	=	=	=	=	=	=	=	=	=	=	=	=	=	=	=
2g	.	wer	.	uns#	.	sollst	.	für	.	du	.	still	.	ü#	.	sitz’
2g	.	ihn	.	#'re	.	es	.	und	.	in	.	und	.	#ber#	.	und
=	=	=	=	=	=	=	=	=	=	=	=	=	=	=	=	=
1a	.	nennt,	.	Stimm’,	.	sein,	.	für	.	mir;	.	froh	.	#wärts	.	steh’,
=	=	=	=	=	=	=	=	=	=	=	=	=	=	=	=	=
4cc	.	schlagt	.	da	.	un#	.	trach#	.	Lass	.	dei#	.	wie	.	lass
4cc	.	die	.	auch	.	#ser	.	#ten	.	mich	.	#ne	.	ein	.	mich
4b-	.	Au#	.	wir	.	Gott	.	zu	.	ganz	.	Strah#	.	Ad#	.	dich
4a	.	#gen	.	Ge#	.	und	.	ge#	.	ver#	.	#len	.	#ler	.	er#
=	=	=	=	=	=	=	=	=	=	=	=	=	=	=	=	=
2g	.	nie#	.	#rin#	.	Her#	.	#fal#	.	#schwin#	.	fas#	.	schwe#	.	#blik#
2a	.	#der;	.	#gen	.	#re;	.	#len,	.	#den,	.	#sen,	.	#ben	.	#ken
=	=	=	=	=	=	=	=	=	=	=	=	=	=	=	=	=
4cc	.	kommt,	.	uns#	.	Dir	.	lieb#	.	dich	.	und	.	und	.	und
4cc	.	er#	.	#'re	.	ge#	.	#ster	.	nur	.	dich	.	in	.	vor
4b-	.	#gebt	.	Op#	.	#bührt	.	Gott,	.	seh’n	.	wir#	.	dir	.	dir
4a	.	euch	.	#fer	.	die	.	in	.	und	.	#ken	.	nur	.	mich
=	=	=	=	=	=	=	=	=	=	=	=	=	=	=	=	=
2g	.	wie#	.	brin#	.	Eh#	.	al#	.	fin#	.	las#	.	le#	.	bük#
2f	.	#der.	.	#gen.	.	#re.	.	#len.	.	#den.	.	#sen.	.	#ben.	.	#ken.
==	==	==	==	==	==	==	==	==	==	==	==	==	==	==	==	==
*-	*-	*-	*-	*-	*-	*-	*-	*-	*-	*-	*-	*-	*-	*-	*-	*-
